X: 1
T:Four Green Fields
M:3/4
L:1/8
Q:80
C:arr. J. McGonigal
S:
K:HP
| {Gdc}d6|
{gcd}c4B2|
{G}A6|  !
{GAG}A6|
{gBd}B6|
{e}G6|  !
{g}A6|
{g}A2B2c2|
{Gdc}d6|  !
{gcd}c4B2|
{G}A6|
{GAG}A6|  !
{g}B4{GdGe}B2|
{g}B2c2d2|
{gcd}c6|  !
{g}c2B2A2|
{g}f6|
{gef}e6|  !
{Gdc}d6|
{gdG}d6|
{g}f4d2|  !
{gf}g4f2|
{g}f2e4|
{A}e4A2|  !
{g}f6|
{gef}e6|
{Gdc}d6|  !
{gdG}d4c2|
{g}B4{GdGe}B2|
{g}B2c2d2|  !
{gef}e6|
{g}e4BA|
a6|  !
{f}g6|
{fg}f6|
{g}f4A2{g}f4d2|  !
{gf}g4a2|
f2{g}e4|
{A}e4A2|  !
{gBd}B6|
{Gdc}d6{g}A6|
{GAG}A4g2|  !
{g}f4ed|
{g}e4c2|
{Gdc}d6|  !
{gdG}d6|]
